assets/welcome_wallet.svg

<svg fill="none" height="59" viewBox="0 0 60 59" width="60" xmlns="http://www.w3.org/2000/svg"><path clip-rule="evenodd" d="m53.5921 13.7819c1.7575 0 3.3607.7228 4.5221 1.8858 1.163 1.1543 1.8858 2.7591 1.8858 4.5229v7.5346h-14.0488c-4.2126 0-7.6662 3.4535-7.6662 7.6661v1.6213c0 4.2126 3.4536 7.6661 7.6662 7.6661h14.0488v7.5339c0 1.763-.7228 3.3677-1.8811 4.5268-1.1591 1.159-2.7638 1.8819-4.5268 1.8819h-40.1921c-7.36378 0-13.4-6.037-13.4-13.4v-36.53547-.04567c0-4.75827 3.87953-8.64016 8.6378-8.64016h36.9811c.9654 0 1.748.782677 1.748 1.74724 0 .96536-.7826 1.74804-1.748 1.74804h-36.9811c-6.75512 0-6.76693 10.28662 0 10.28662zm6.4079 15.9433v12.9535h-14.0488c-3.1197 0-5.6662-2.5464-5.6662-5.6661v-1.6213c0-3.1196 2.5465-5.6661 5.6662-5.6661zm-9.8693 2.3843c1.1276 0 2.1496.459 2.8898 1.1984.7441.7401 1.2023 1.7645 1.2023 2.8937 0 1.1299-.4582 2.1535-1.1984 2.8937-.7401.7401-1.7638 1.1984-2.8937 1.1984-1.1291 0-2.1535-.4583-2.8937-1.1984l-.0583-.063c-.7047-.7354-1.1401-1.7331-1.1401-2.8307 0-1.126.459-2.1488 1.1984-2.8898.7449-.7433 1.7677-1.2023 2.8937-1.2023zm1.4803 2.6118c-.3771-.378-.9008-.6118-1.4803-.6118-.5787 0-1.1039.2346-1.4811.611-.3764.3771-.611.9023-.611 1.4811 0 .5582.2173 1.0645.5701 1.4393l.0425.0402c.3779.378.9023.6126 1.4795.6126.578 0 1.1016-.2346 1.4795-.6126.378-.3779.6126-.9016.6126-1.4795 0-.5772-.2346-1.1016-.6118-1.4803z" fill="#00a1cc" fill-rule="evenodd"/></svg>

<svg width="60" height="59" viewBox="0 0 60 59" fill="none" xmlns="http://www.w3.org/2000/svg">
<path fill-rule="evenodd" clip-rule="evenodd" d="M53.5921 13.7819C55.3496 13.7819 56.9528 14.5047 58.1142 15.6677C59.2772 16.822 60 18.4268 60 20.1906V27.7252H45.9512C41.7386 27.7252 38.285 31.1787 38.285 35.3913V37.0126C38.285 41.2252 41.7386 44.6787 45.9512 44.6787H60V52.2126C60 53.9756 59.2772 55.5803 58.1189 56.7394C56.9598 57.8984 55.3551 58.6213 53.5921 58.6213H13.4C6.03622 58.6213 0 52.5843 0 45.2213V8.68583V8.64016C0 3.88189 3.87953 0 8.6378 0H45.6189C46.5843 0 47.3669 0.782677 47.3669 1.74724C47.3669 2.7126 46.5843 3.49528 45.6189 3.49528H8.6378C1.88268 3.49528 1.87087 13.7819 8.6378 13.7819H53.5921ZM60 29.7252V42.6787H45.9512C42.8315 42.6787 40.285 40.1323 40.285 37.0126V35.3913C40.285 32.2717 42.8315 29.7252 45.9512 29.7252H60ZM50.1307 32.1095C51.2583 32.1095 52.2803 32.5685 53.0205 33.3079C53.7646 34.048 54.2228 35.0724 54.2228 36.2016C54.2228 37.3315 53.7646 38.3551 53.0244 39.0953C52.2843 39.8354 51.2606 40.2937 50.1307 40.2937C49.0016 40.2937 47.9772 39.8354 47.237 39.0953L47.1787 39.0323C46.474 38.2969 46.0386 37.2992 46.0386 36.2016C46.0386 35.0756 46.4976 34.0528 47.237 33.3118C47.9819 32.5685 49.0047 32.1095 50.1307 32.1095ZM51.611 34.7213C51.2339 34.3433 50.7102 34.1095 50.1307 34.1095C49.552 34.1095 49.0268 34.3441 48.6496 34.7205C48.2732 35.0976 48.0386 35.6228 48.0386 36.2016C48.0386 36.7598 48.2559 37.2661 48.6087 37.6409L48.6512 37.6811C49.0291 38.0591 49.5535 38.2937 50.1307 38.2937C50.7087 38.2937 51.2323 38.0591 51.6102 37.6811C51.9882 37.3032 52.2228 36.7795 52.2228 36.2016C52.2228 35.6244 51.9882 35.1 51.611 34.7213Z" fill="#00A1CC"/>
<defs>
<linearGradient id="paint0_linear_4892_82410" x1="30" y1="0" x2="30" y2="58.6213" gradientUnits="userSpaceOnUse">
<stop stop-color="#00A1CC"/>
<stop offset="1" stop-color="#0E83A3"/>
</linearGradient>
</defs>
</svg>
